src/main/resources/static/assets/img/logos/etc/angular.svg

<?xml version="1.0" encoding="UTF-8" standalone="no"?>
<svg width="256px" height="272px" viewBox="0 0 256 272" version="1.1" xmlns="http://www.w3.org/2000/svg" xmlns:xlink="http://www.w3.org/1999/xlink" preserveAspectRatio="xMidYMid">
	<g>
		<path d="M0.0996108949,45.522179 L125.908171,0.697276265 L255.103502,44.7252918 L234.185214,211.175097 L125.908171,271.140856 L19.3245136,211.971984 L0.0996108949,45.522179 Z" fill="#E23237"></path>
		<path d="M255.103502,44.7252918 L125.908171,0.697276265 L125.908171,271.140856 L234.185214,211.274708 L255.103502,44.7252918 L255.103502,44.7252918 Z" fill="#B52E31"></path>
		<path d="M126.107393,32.27393 L126.107393,32.27393 L47.7136187,206.692607 L76.9992218,206.194553 L92.7377432,166.848249 L126.207004,166.848249 L126.306615,166.848249 L163.063035,166.848249 L180.29572,206.692607 L208.286381,207.190661 L126.107393,32.27393 L126.107393,32.27393 Z M126.306615,88.155642 L152.803113,143.5393 L127.402335,143.5393 L126.107393,143.5393 L102.997665,143.5393 L126.306615,88.155642 L126.306615,88.155642 Z" fill="#FFFFFF"></path>
	</g>
</svg>

<svg id="레이어_1" data-name="레이어 1" xmlns="http://www.w3.org/2000/svg" viewBox="0 0 255 270.44"><defs><style>.cls-1{fill:#e23237;}.cls-2{fill:#b52e31;}.cls-3{fill:#fff;}</style></defs><path class="cls-1" d="M.1,45.52,125.91.7l129.19,44L234.19,211.18l-108.28,60L19.32,212Z" transform="translate(-0.1 -0.7)"/><path class="cls-2" d="M255.1,44.73,125.91.7V271.14l108.28-59.87L255.1,44.73Z" transform="translate(-0.1 -0.7)"/><path class="cls-3" d="M126.11,32.27h0L47.71,206.69l29.29-.5,15.74-39.34h70.32l17.24,39.84,28,.5L126.11,32.27Zm.2,55.89,26.49,55.38H103l23.31-55.38Z" transform="translate(-0.1 -0.7)"/></svg>
